X: 90
M:2/4
L:1/16
K:D
((3uABc)|ukd4kc4|kd2vduA FAde|.f2vfue defd|eafd "4"edBc|
kd4kc4|kd2vdA FAde|fefa gfed|cd"4"ec d2:|
|:(ucd)|(v."4"e>."4"A)((3uA^GA) fafd|(v."4"e>."4"A)((3uA^GA) dAFD|\
(v."4"e>."4"A)((3uA^GA) gfed|"4"edcB A2(cd)|
(v."4"e>."4"A)((3uA^GA) fafd|(v."4"e>."4"A)((3uA^GA) dAFD|\


